app/dist/common/images/marin-software.svg

<svg height="18" viewBox="0 0 18 18" width="18" xmlns="http://www.w3.org/2000/svg"><path d="m0 0h18v18h-18z" fill="#f0f3fa"/><path d="m5.68 12 1.82-4.15 1.8 4.15h1.7l-3.5-8-3.5 8z" fill="#48b8f0"/><path d="m10.42 7.88 1.84 4.12h1.74l-3.6-8-1.4 3.15.87 1.93z" fill="#1c2b36"/></svg>

<!-- by TradingView --><svg xmlns="http://www.w3.org/2000/svg" width="18" height="18" viewBox="0 0 18 18"><path fill="#F0F3FA" d="M0 0h18v18H0z"/><path d="M5.68 12L7.5 7.85 9.3 12H11L7.5 4 4 12h1.68z" fill="#48B8F0"/><path d="M10.42 7.88L12.26 12H14l-3.6-8L9 7.15l.87 1.93.55-1.2z" fill="#1C2B36"/></svg>
